Origami/24x24/apps/4kslideshowmaker.svg

<svg width="24" height="24" version="1.1" viewBox="0 0 24 24" xmlns="http://www.w3.org/2000/svg">
 <path d="m8.5017287 4.5c-2.4485602 0-4.4978188 2.0502524-4.4978188 4.5 0 1.047756 0.4296316 1.981459 1.0502719 2.753906l-2.354327 2.826172c-1.6259597 1.954033-0.2377456 4.918954 2.3035704 4.919922h13.993214c2.314304 0 3.756386-2.511547 2.590541-4.511719l-3.498303-5.9999998c-1.131148-1.9334132-3.904353-1.989561-5.112756-0.1035156-0.06638-2.3956572-2.066429-4.3847656-4.4743923-4.3847656z" style="opacity:.2"/>
 <path d="m8.5017287 4c-2.4485602 0-4.4978188 2.0502524-4.4978188 4.5 0 1.047756 0.4296316 1.981459 1.0502719 2.753906l-2.354327 2.826172c-1.6259597 1.954033-0.2377456 4.918954 2.3035704 4.919922h13.993214c2.314304 0 3.756386-2.511547 2.590541-4.511719l-3.498303-5.9999998c-1.131148-1.9334132-3.904353-1.989561-5.112756-0.1035156-0.06638-2.3956572-2.066429-4.3847656-4.4743923-4.3847656z" style="fill:#a1252b"/>
 <path d="m8.5 7.5c-0.8284271 0-1.5 0.6715729-1.5 1.5s0.6715729 1.5 1.5 1.5 1.5-0.6715729 1.5-1.5-0.6715729-1.5-1.5-1.5zm7 3-2 3.5-2-1.5l-2.5 2.5-1.5-1.5-2.5 3h14z" style="opacity:.2"/>
 <path d="m8.5 7c-0.8284271 0-1.5 0.6715729-1.5 1.5s0.6715729 1.5 1.5 1.5 1.5-0.6715729 1.5-1.5-0.6715729-1.5-1.5-1.5zm7 3-2 3.5l-2-1.5-2.5 2.5-1.5-1.5-2.5 3h14z" style="fill:#ffffff"/>
 <path d="m8.5019531 4c-2.4485602 0-4.4980469 2.0502524-4.4980469 4.5 0 0.0877552 0.0195032 0.1697321 0.0253907 0.2558594 0.1329154-2.3382408 2.1074435-4.2558594 4.4726562-4.2558594 2.4079629 0 4.4082299 1.9891084 4.4746089 4.3847656 1.208404-1.8860454 3.982134-1.8298975 5.113282 0.1035156l3.498047 5.9999998c0.224064 0.384414 0.348851 0.786768 0.392578 1.1875 0.034963-0.560507-0.074463-1.141728-0.392578-1.6875l-3.498047-5.9999998c-1.131148-1.9334131-3.904878-1.989561-5.113282-0.1035156-0.066379-2.3956572-2.066646-4.3847656-4.4746089-4.3847656zm-3.6367187 7.482422l-2.1660156 2.597656c-0.5380905 0.646662-0.7402246 1.402932-0.6855469 2.126953 0.0534423-0.563924 0.2708624-1.128597 0.6855469-1.626953l2.3554687-2.826172c-0.0690974-0.085998-0.1254201-0.181553-0.1894531-0.271484z" style="fill:#ffffff;opacity:.1"/>
</svg>

<svg xmlns="http://www.w3.org/2000/svg" width="24" height="24" version="1.1" viewBox="0 0 24 24">
 <path style="opacity:0.2" d="M 8.5017287,4.5 C 6.0531685,4.5 4.0039099,6.5502524 4.0039099,9 c 0,1.047756 0.4296316,1.981459 1.0502719,2.753906 l -2.354327,2.826172 C 1.0738951,16.534111 2.4621092,19.499032 5.0034252,19.5 H 18.996639 c 2.314304,0 3.756386,-2.511547 2.590541,-4.511719 L 18.088877,8.9882812 C 16.957729,7.054868 14.184524,6.9987202 12.976121,8.8847656 12.909741,6.4891084 10.909692,4.5 8.5017287,4.5 Z"/>
 <path style="fill:#a1252b" d="M 8.5017287,4 C 6.0531685,4 4.0039099,6.0502524 4.0039099,8.5 c 0,1.047756 0.4296316,1.981459 1.0502719,2.753906 l -2.354327,2.826172 C 1.0738951,16.034111 2.4621092,18.999032 5.0034252,19 H 18.996639 c 2.314304,0 3.756386,-2.511547 2.590541,-4.511719 L 18.088877,8.4882812 C 16.957729,6.554868 14.184524,6.4987202 12.976121,8.3847656 12.909741,5.9891084 10.909692,4 8.5017287,4 Z"/>
 <path style="opacity:0.2" d="M 8.5,7.5 C 7.6715729,7.5 7,8.1715729 7,9 7,9.8284271 7.6715729,10.5 8.5,10.5 9.3284271,10.5 10,9.8284271 10,9 10,8.1715729 9.3284271,7.5 8.5,7.5 Z m 7,3 -2,3.5 -2,-1.5 L 9,15 7.5,13.5 5,16.5 h 14 z"/>
 <path style="fill:#ffffff" d="M 8.5,7 C 7.6715729,7 7,7.6715729 7,8.5 7,9.3284271 7.6715729,10 8.5,10 9.3284271,10 10,9.3284271 10,8.5 10,7.6715729 9.3284271,7 8.5,7 Z m 7,3 -2,3.5 L 11.5,12 9,14.5 7.5,13 5,16 h 14 z"/>
 <path style="opacity:0.1;fill:#ffffff" d="M 8.5019531 4 C 6.0533929 4 4.0039062 6.0502524 4.0039062 8.5 C 4.0039062 8.5877552 4.0234094 8.6697321 4.0292969 8.7558594 C 4.1622123 6.4176186 6.1367404 4.5 8.5019531 4.5 C 10.909916 4.5 12.910183 6.4891084 12.976562 8.8847656 C 14.184966 6.9987202 16.958696 7.0548681 18.089844 8.9882812 L 21.587891 14.988281 C 21.811955 15.372695 21.936742 15.775049 21.980469 16.175781 C 22.015432 15.615274 21.906006 15.034053 21.587891 14.488281 L 18.089844 8.4882812 C 16.958696 6.5548681 14.184966 6.4987202 12.976562 8.3847656 C 12.910183 5.9891084 10.909916 4 8.5019531 4 z M 4.8652344 11.482422 L 2.6992188 14.080078 C 2.1611283 14.72674 1.9589942 15.48301 2.0136719 16.207031 C 2.0671142 15.643107 2.2845343 15.078434 2.6992188 14.580078 L 5.0546875 11.753906 C 4.9855901 11.667908 4.9292674 11.572353 4.8652344 11.482422 z"/>
</svg>
